logo/release.svg

<?xml version="1.0" encoding="UTF-8"?>
<svg width="256px" height="290px" viewBox="0 0 256 290" version="1.1" xmlns="http://www.w3.org/2000/svg" xmlns:xlink="http://www.w3.org/1999/xlink" preserveAspectRatio="xMidYMid">
    <title>Release</title>
    <g>
        <path d="M119.502813,2.06556497 C124.278471,-0.688411351 131.721146,-0.688631958 136.497187,2.06556497 L136.497187,2.06556497 L247.500593,66.0778438 C252.277226,68.8323829 256,75.2723293 256,80.7830916 L256,80.7830916 L256,208.806389 C256,214.304238 252.272469,220.759841 247.500593,223.511637 L247.500593,223.511637 L136.497187,287.523916 C131.721529,290.277892 124.278854,290.278113 119.502813,287.523916 L119.502813,287.523916 L8.49940744,223.511637 C3.72277358,220.757098 0,214.317152 0,208.806389 L0,208.806389 L0,80.7830916 C0,75.2852434 3.72753056,68.8296397 8.49940744,66.0778438 L8.49940744,66.0778438 Z M133.989604,6.41395413 C130.765555,4.55474377 125.23416,4.55490773 122.010396,6.41395413 L122.010396,6.41395413 L11.0069909,70.426233 C7.78978637,72.2814967 5.01960784,77.0790898 5.01960784,80.7830916 L5.01960784,80.7830916 L5.01960784,208.806389 C5.01960784,212.522351 7.78420273,217.304764 11.0069909,219.163248 L11.0069909,219.163248 L122.010396,283.175527 C125.234445,285.034737 130.76584,285.034573 133.989604,283.175527 L133.989604,283.175527 L244.993009,219.163248 C248.210214,217.307984 250.980392,212.510391 250.980392,208.806389 L250.980392,208.806389 L250.980392,80.7830916 C250.980392,77.0671302 248.215797,72.2847166 244.993009,70.426233 L244.993009,70.426233 Z M127.999665,146.468278 C129.304255,146.468278 130.376364,147.463646 130.49798,148.736371 L130.509469,148.978082 L130.509469,274.468278 C130.509469,275.854404 129.385792,276.978082 127.999665,276.978082 C126.695076,276.978082 125.622967,275.982713 125.501351,274.709989 L125.489861,274.468278 L125.489861,148.978082 C125.489861,147.591955 126.613539,146.468278 127.999665,146.468278 Z M188.505792,136.429062 L230.182193,201.40633 L166.263861,237.000252 L188.505792,136.429062 Z M20.0817198,80.8822075 L20.3007479,80.9850804 L121.980486,134.77593 C123.205725,135.424109 123.673525,136.942814 123.025346,138.168053 C122.415296,139.321219 121.034121,139.803436 119.852251,139.315786 L119.633223,139.212913 L17.9534848,85.4220635 C16.7282458,84.7738847 16.260446,83.2551795 16.9086248,82.0299404 C17.5186754,80.8767742 18.8998498,80.3945577 20.0817198,80.8822075 Z M235.303232,80.8822075 C236.485102,80.3945577 237.866276,80.8767742 238.476327,82.0299404 C239.124506,83.2551795 238.656706,84.7738847 237.431467,85.4220635 L237.431467,85.4220635 L135.751728,139.212913 L135.5327,139.315786 C134.35083,139.803436 132.969656,139.321219 132.359605,138.168053 C131.711426,136.942814 132.179226,135.424109 133.404465,134.77593 L133.404465,134.77593 L235.084204,80.9850804 Z" fill="#000000"></path>
    </g>
</svg>

<svg viewBox="0 0 256 290" xmlns="http://www.w3.org/2000/svg"><path d="M119.5 2.06c4.77-2.76 12.21-2.76 16.99 0v0l111 64.01c4.77 2.75 8.49 9.19 8.49 14.7v0 128.02c0 5.49-3.73 11.95-8.5 14.7v0L136.47 287.5c-4.78 2.75-12.22 2.75-17 0v0L8.46 223.48c-4.78-2.76-8.5-9.2-8.5-14.71v0V80.74c0-5.5 3.72-11.96 8.49-14.71v0Zm14.48 4.34c-3.23-1.86-8.76-1.86-11.98 0v0L10.99 70.41C7.77 72.26 5 77.06 5 80.76v0 128.02c0 3.71 2.76 8.49 5.98 10.35v0l111 64.01c3.22 1.85 8.75 1.85 11.97 0v0l111-64.02c3.21-1.86 5.98-6.66 5.98-10.36v0V80.73c0-3.72-2.77-8.5-5.99-10.36v0Zm-5.99 140.05c1.3 0 2.37.99 2.49 2.26l.01.24v125.49c0 1.38-1.13 2.5-2.51 2.5 -1.31 0-2.38-1-2.5-2.27l-.02-.25v-125.5c0-1.39 1.12-2.51 2.5-2.51Zm60.5-10.04l41.67 64.97 -63.92 35.59 22.24-100.58ZM20.06 80.86l.21.1 101.67 53.79c1.22.64 1.69 2.16 1.04 3.39 -.62 1.15-2 1.63-3.18 1.14l-.22-.11L17.9 85.37c-1.23-.65-1.7-2.17-1.05-3.4 .61-1.16 1.99-1.64 3.17-1.15Zm215.22 0c1.18-.49 2.56-.01 3.17 1.14 .64 1.22.18 2.74-1.05 3.39v0l-101.68 53.79 -.22.1c-1.19.48-2.57 0-3.18-1.15 -.65-1.23-.19-2.75 1.04-3.4v0l101.67-53.8Z"/></svg>
